icons/banking/icon_transfer-any-bank-credit_xxl_white.svg

<svg xmlns="http://www.w3.org/2000/svg" width="48" height="48" viewBox="0 0 48 48">
  <g fill="none">
    <rect width="48" height="48" fill="none"/>
    <g fill="#FFFFFF" fill-rule="nonzero">
    <path d="M29.328,24.847 L30.568,25.911 L17.673,40.93 L16.434,39.866 L29.327,24.847 L29.328,24.847 Z M28.6,41.25 C26.5850745,41.2477955 24.9522045,39.6149255 24.95,37.6 C24.9522045,35.5850745 26.5850745,33.9522045 28.6,33.95 C30.6149255,33.9522045 32.2477955,35.5850745 32.25,37.6 C32.2477955,39.6149255 30.6149255,41.2477955 28.6,41.25 Z M28.6,35.583 C27.4865939,35.5827239 26.5837761,36.4850939 26.5835,37.5985 C26.5832239,38.7119061 27.4855939,39.6147239 28.599,39.615 C29.7124061,39.6152761 30.6152239,38.7129061 30.6155,37.5995 C30.6157761,36.4860939 29.7134061,35.5832761 28.6,35.583 Z M18.4,31.05 C16.3850745,31.0477955 14.7522045,29.4149255 14.75,27.4 C14.7522045,25.3850745 16.3850745,23.7522045 18.4,23.75 C20.4149255,23.7522045 22.0477955,25.3850745 22.05,27.4 C22.0477955,29.4149255 20.4149255,31.0477955 18.4,31.05 Z M18.4,25.383 C17.2865939,25.3827239 16.3837761,26.2850939 16.3835,27.3985 C16.3832239,28.5119061 17.2855939,29.4147239 18.399,29.415 C19.5124061,29.4152761 20.4152239,28.5129061 20.4155,27.3995 C20.4157761,26.2860939 19.5134061,25.3832761 18.4,25.383 Z" opacity=".3"/>
    <path d="M7,22 L8,22 L8,44 L7,44 L7,22 Z M39,22 L40,22 L40,44 L39,44 L39,22 Z M0.2,19.6 L0.8,20.4 L23.5,4.6 L46.2,20.4 L46.8,19.6 L23.5,3.4 L0.2,19.6 Z"/>
    </g>
  </g>
</svg>

<svg xmlns="http://www.w3.org/2000/svg" width="48" height="48" viewBox="0 0 48 48"><g fill="none" fill-rule="evenodd"><path d="M0 0h48v48H0z"/><path fill="#FFF" fill-rule="nonzero" d="M29.328 24.847l1.24 1.064L17.673 40.93l-1.239-1.064 12.893-15.019zM28.6 41.25a3.654 3.654 0 0 1-3.65-3.65 3.654 3.654 0 0 1 3.65-3.65 3.654 3.654 0 0 1 3.65 3.65 3.654 3.654 0 0 1-3.65 3.65zm0-5.667a2.016 2.016 0 1 0-.001 4.032 2.016 2.016 0 0 0 .001-4.032zM18.4 31.05a3.654 3.654 0 0 1-3.65-3.65 3.654 3.654 0 0 1 3.65-3.65 3.654 3.654 0 0 1 3.65 3.65 3.654 3.654 0 0 1-3.65 3.65zm0-5.667a2.016 2.016 0 1 0-.001 4.032 2.016 2.016 0 0 0 .001-4.032z" opacity=".3"/><path fill="#FFF" d="M7 22h1v22H7zm32 0h1v22h-1zM.2 19.6l.6.8L23.5 4.6l22.7 15.8.6-.8L23.5 3.4z"/></g></svg>
